teeny/solid/paragraph.svg

<svg width="15" height="15" viewBox="0 0 15 15" fill="none" xmlns="http://www.w3.org/2000/svg">
<path fill-rule="evenodd" clip-rule="evenodd" d="M2 5.5C2 3.01472 4.01472 1 6.5 1H13V2H11V14H10V2H8V14H7V10H6.5C4.01472 10 2 7.98528 2 5.5ZM7 9V2H6.5C4.567 2 3 3.567 3 5.5C3 7.433 4.567 9 6.5 9H7Z" fill="black"/>
</svg>

<svg viewBox="0 0 15 15" xmlns="http://www.w3.org/2000/svg"><path fill-rule="evenodd" d="M2 5.5C2 3.01 4.01 1 6.5 1H13v1h-2v12h-1V2H8v12H7v-4h-.5C4.01 10 2 7.98 2 5.5ZM7 9V2h-.5C4.56 2 3 3.56 3 5.5 3 7.43 4.56 9 6.5 9H7Z"/></svg>
